svg/fluentui-system-icons/ic_fluent_cursor_hover_48_regular.svg

<svg width="48" height="48" viewBox="0 0 48 48" fill="none" xmlns="http://www.w3.org/2000/svg">
<path d="M4 12.75C4 10.1266 6.12665 8 8.75 8H39.25C41.8734 8 44 10.1266 44 12.75V31.25C44 33.6523 42.2166 35.6381 39.9015 35.9557C39.7616 35.4003 39.4744 34.8783 39.0481 34.452L38.0961 33.5H39.25C40.4926 33.5 41.5 32.4926 41.5 31.25V12.75C41.5 11.5074 40.4926 10.5 39.25 10.5H8.75C7.50736 10.5 6.5 11.5074 6.5 12.75V31.25C6.5 32.4926 7.50736 33.5 8.75 33.5H18V36H8.75C6.12665 36 4 33.8734 4 31.25V12.75ZM22.1339 20.3661C21.7764 20.0086 21.2387 19.9017 20.7716 20.0952C20.3046 20.2886 20 20.7444 20 21.25V42.75C20 43.2993 20.3586 43.7842 20.8837 43.9451C21.4089 44.1061 21.9776 43.9053 22.2854 43.4504L27.2462 36.1169C27.4237 35.8545 27.7469 35.732 28.0537 35.8106L36.4395 37.9608C36.9851 38.1007 37.5569 37.8585 37.8359 37.3692C38.1149 36.8799 38.0322 36.2644 37.6339 35.8661L22.1339 20.3661ZM22.5 38.6713V24.2678L32.6372 34.405L28.6747 33.389C27.3451 33.048 25.9446 33.5792 25.1755 34.7161L22.5 38.6713Z" fill="#212121"/>
</svg>

<svg xmlns="http://www.w3.org/2000/svg" width="48" height="48"><path d="M4 12.75A4.75 4.75 0 0 1 8.75 8h30.5A4.75 4.75 0 0 1 44 12.75v18.5a4.751 4.751 0 0 1-4.099 4.706 3.244 3.244 0 0 0-.853-1.504l-.952-.952h1.154a2.25 2.25 0 0 0 2.25-2.25v-18.5a2.25 2.25 0 0 0-2.25-2.25H8.75a2.25 2.25 0 0 0-2.25 2.25v18.5a2.25 2.25 0 0 0 2.25 2.25H18V36H8.75A4.75 4.75 0 0 1 4 31.25v-18.5Zm18.134 7.616A1.25 1.25 0 0 0 20 21.25v21.5a1.25 1.25 0 0 0 2.285.7l4.961-7.333a.75.75 0 0 1 .808-.306l8.386 2.15a1.25 1.25 0 0 0 1.194-2.095l-15.5-15.5Zm.366 18.305V24.268l10.137 10.137-3.962-1.016a3.25 3.25 0 0 0-3.5 1.327L22.5 38.671Z"/></svg>
